src/assets/images/IconCompletePurple.svg

<svg width="185" height="170" viewBox="0 0 199 184" fill="none" xmlns="http://www.w3.org/2000/svg">
<path fill-rule="evenodd" clip-rule="evenodd" d="M0 92.4993C0 41.9649 40.9662 0.998657 91.5007 0.998657V6.99866C44.28 6.99866 6 45.2786 6 92.4993C6 139.72 44.28 178 91.5007 178C138.721 178 177.001 139.72 177.001 92.4993C177.001 77.1195 172.941 62.6881 165.833 50.2189L86.6121 122.063C86.0198 122.6 85.2376 122.878 84.4391 122.836C83.6406 122.794 82.8919 122.435 82.3593 121.839L42.4297 77.1312C41.3261 75.8955 41.4331 73.999 42.6689 72.8953C43.9046 71.7916 45.8011 71.8987 46.9048 73.1344L84.8207 115.587L193.494 17.0332C194.722 15.9202 196.619 16.0128 197.732 17.2401C198.845 18.4675 198.752 20.3647 197.525 21.4777L170.379 46.0961C178.4 59.7011 183.001 75.5629 183.001 92.4993C183.001 143.034 142.035 184 91.5007 184C40.9662 184 0 143.034 0 92.4993Z" fill="#9956B3"/>
</svg>

<svg width="185" height="170" viewBox="0 0 199 184" fill="none" xmlns="http://www.w3.org/2000/svg"><path fill-rule="evenodd" clip-rule="evenodd" d="M0 92.5C0 41.964 40.966.998 91.5.998v6c-47.22 0-85.5 38.28-85.5 85.5C6 139.72 44.28 178 91.5 178c47.221 0 85.501-38.28 85.501-85.5 0-15.38-4.06-29.812-11.168-42.281l-79.22 71.844a3 3 0 0 1-4.254-.224L42.43 77.131a3 3 0 0 1 4.476-3.997l37.916 42.453 108.673-98.554a3 3 0 0 1 4.031 4.445l-27.146 24.618c8.021 13.605 12.622 29.467 12.622 46.403 0 50.535-40.966 91.501-91.5 91.501C40.966 184 0 143.034 0 92.5z" fill="#9956B3"/></svg>
